X:302
T:Ravelled Hank of Yarn
Z: id:dc-reel-280
M:C
L:1/8
K:D Mixolydian
A|B3d A3B|GBB2 GBB2|dAA2 d2eg|fdcA AGG:|!
B|dGG2 dGBd|g3a bgag|dGG2 d2eg|fdcA AGGB|!
dGG2 dGBd|g3a bgaf|g3a bgag|fdcA AGG|]!

